X:1
T:Anonymus (1556) Villancicos de diversos Autores (Cancionero de Uppsala)
T:Estas noches a tan largas
%%score [ 1 2 3 4 ]
L:1/8
Q:1/4=240
M:4/4
K:C
V:1 treble nm="Cantus"
V:2 treble nm="Altus"
V:3 treble nm="Tenor"
V:4 treble nm="Bassus"
V:1
"^;" x8 | z16 | z8 A6 A2 | G4 E4 F6 F2 | G16 | E8 z4 G4 | F8 E8 x2 | D8 E8 x6 | E6 E2 F4 D4 x8 | %9
w: ||E- stas|no- ches a tan|lar-|gas pa-|ra mi|||
w: ||||||||no so- li- an|
w: ||mas es-|tas quea- mor me|gra-|va non|dor- mi|||
 G8 A8 | G8 z8 x2 | z8 B6 B2 x2 | c4 A4 c8 | B6 AG A8 x4 | G16 x2 | z16 x2 | B6 B2 c4 c4 | %17
w: |si,|no so-|li- an ser|an- * * *|si,||no so- li- an|
w: ser an-||||||||
w: ||||||||
 A4 B6 A2 A8 | ^G4"^-" x8 x4 |]"^BVELTA""^(Refrain)" E8 F8 | G12 G4 | F4 E4 F8 | E16 | z4 A4 A8 | %24
w: ser an * *||So- li-|a que|re- po- sa-|va|las no-|
w: |||||||
w: ||y~el ra-|to que|non dor- mi-|a|con des-|
 A6 B2 c4 B6 | A2 A8 ^G4 A4 | c4 c4 B4 A8 |"^-" x8 x8 |] %28
w: ches * * con|* * * a-|le- gri- * *||
w: ||||
w: can- * * so|* * * lo|pa- sa- * *||
V:2
"^;" x8 | z8 E6 E2 | D4 B,4 C6 D2 | E8 A,8 | E6 DC D8 | C6 D2 E8 | z4 D4 C4 B,6 | %7
w: |E- stas|no- ches a tan|lar- gas|pa- * * ra-|mi * *|pa- * ra|
w: |||||||
w: |mas es-|tas quea- mor me|gra- va|non * * dor-|mi * *|non * dor-|
 A,2 A,8 ^G,4 A,8 | z8 z16 | E6 E2 F4 D4 | E8 D8 x2 | C4 E8 ^F4 x2 | G4 G4 C4 D4 | E8 E6 E2 x4 | %14
w: * mi * *||No so- li- an|ser an-|si, * *|||
w: ||||* no so-|li- an ser an-|si, no- so-|
w: * mi * *|||||||
 D4 F4 E4 C4 x2 | D8 C4 E2 E2 x2 | E4 F4 E4 D4 |"^-" x8- x8 x4 | C8 D8 |] E12 E4 | D4 C4 A,4 B,4 | %21
w: |* * no so-|li- an ser an-|si.|So- li-|a que|re- po- sa- *|
w: li- an ser an-|* si, * *||||||
w: ||||y~el ra-|to que|non dor- mi- *|
 C8 z4 C4 | C8 C4 D4 | A,4 D4 E4 F4 | E4 D4 E8 x2 | C16 x2 | D8"^-" x8 x4 | x16 |] %28
w: va las|no- ches *|con * * *|a- le- gri-||||
w: |||||||
w: a con|des- can- *|so * * *|lo pa- sa-||||
V:3
"^;" x8 | A,6 A,2 G,4 E,4 | F,4 G,4 A,8 | B,8 z4 D4 | G,4 C6 B,2 B,4 | C4 G,8 E,4 | %6
w: |E- stas no- ches|a tan lar-|gas pa-|ra- mi * *|* * pa-|
w: ||||||
w: |mas es- tas quea-|mor me gra-|va non|dor- mi * *|* * non|
 F,2 G,2 A,8 ^G,4 x2 | A,8 B,6 B,2 x6 | C4 A,4 D6 C2 x8 | B,8 A,4 D4 | B,4 C4 A,4 B,6 | %11
w: ra * mi *||||so- li- an ser|
w: |* no so-|li- an ser *|an- si, no||
w: dor * mi *|||||
 A,2 A,8 ^G,4 A,4 | C8 C4 D4 | E4 A,6 A,2 B,8 | C6 C2 A,4 B,6 | A,2 A,8 ^G,4 A,4 | %16
w: * * an- si|no so- li-|an ser an- si,|no so- li- an|* ser an- si,|
w: |||||
w: |||||
 C2 C2 C4 D4 B,4 | A,4 B,8"^-" x8 | A,8 A,8 |] C12 C4 | A,4 A,4 F,8 | G,8 z4 A,4 | A,8 A,4 A,4 | %23
w: ||So- li-|a que|re- po- sa-|va las|no- ches con|
w: no so- li- an ser|* an-||||||
w: ||y~el ra-|to que|non dor- mi-|a con|des- can- so|
 F,8 G,4 D4 | C6 B,A, B,8 x2 | A,16 x2 | A,8"^-" x8 x4 | x16 |] %28
w: a- * *||le-|gri-||
w: |||||
w: lo * *||pa-|sa-||
V:4
"^;""^E" x8 | z16 | z16 | E,6 E,2 D,4 D,4 | C,6 C,2 G,8 | C,8 z4 C,4 | D,8 E,8 x2 | F,8 E,8 x6 | %8
w: |||E- stas no- ches|a tan lar-|gas pa-|ra- *|mi *|
w: ||||||||
w: |||mas es- tas quea-|mor me gra-|va non|dor- *|mi *|
 A,,8 z8 x8 | E,6 E,2 F,4 D,4 | E,4 C,4 D,8 x2 | C,8 B,,8 x2 | A,,8 A,6 A,2 | G,4 E,4 F,4 F,4 x4 | %14
w: ||ser * an-||si, * *||
w: |no so- li- an|||* no so-|li- an ser an-|
w: ||||||
 E,8 C,6 C,2 x2 | D,4 D,4 C,6 B,,A,, x2 | B,,8 A,,4 A,2 A,2 | A,4 D,4 E,4 F,4 x4 | E,8"^-" x8 |] %19
w: * no so-|li- an ser * *|an- si, * *|||
w: si, * *||* * no so-|li- an ser *|an-|
w: |||||
 A,,8 D,8 | C,8 z4 C,4 | D,4 A,,4 D,8 | C,8 z4 A,,4 | A,,8 A,,4 D,4 | D,8 C,4 D,4 x2 | %25
w: So- li-|a que|re- po- sa-|va las|no- ches *|con a- *|
w: ||||||
w: y~el rra-|to que|non dor mi-|a con|des can- *|so lo *|
 E,4 F,4 E,8 x2 | F,16 x4 | F,8"^-" x8 |] %28
w: |le-|gri-|
w: |||
w: |pa-|sa-|

